third_party/noto/noto_2/emoji_u1f4ee.svg

<svg enable-background="new 0 0 128 128" viewBox="0 0 128 128" xmlns="http://www.w3.org/2000/svg" xmlns:xlink="http://www.w3.org/1999/xlink"><defs><rect id="i" x="4" y="4" width="120" height="120"/></defs><clipPath id="a"><use xlink:href="#i"/></clipPath><linearGradient id="h" x1="64" x2="64" y1="92.983" y2="128.92" gradientUnits="userSpaceOnUse"><stop stop-color="#757575" offset=".2748"/><stop stop-color="#BDBDBD" offset=".9927"/></linearGradient><rect x="50.41" y="84" width="27.18" height="44" clip-path="url(#a)" fill="url(#h)"/><g clip-path="url(#a)" opacity=".2"><path d="m74.59 87v38h-21.18v-38h21.18m3-3h-27.18v44h27.18v-44z" fill="#444"/></g><linearGradient id="g" x1="64" x2="64" y1="5.0431" y2="96.972" gradientUnits="userSpaceOnUse"><stop stop-color="#EF5350" offset=".1383"/><stop stop-color="#E53935" offset=".6599"/></linearGradient><path d="m102 99.96h-76c-4.42 0-8-3.58-8-8v-79.96c0-4.42 3.58-8 8-8h76c4.42 0 8 3.58 8 8v79.96c0 4.42-3.58 8-8 8z" clip-path="url(#a)" fill="url(#g)"/><g clip-path="url(#a)" opacity=".2"><path d="m102 7.07c2.72 0 4.93 2.21 4.93 4.93v79.96c0 2.72-2.21 4.93-4.93 4.93h-76c-2.72 0-4.93-2.21-4.93-4.93v-79.96c0-2.72 2.21-4.93 4.93-4.93h76m0-3.07h-76c-4.42 0-8 3.58-8 8v79.96c0 4.42 3.58 8 8 8h76c4.42 0 8-3.58 8-8v-79.96c0-4.42-3.58-8-8-8z" fill="#444"/></g><path d="m95 33.95h-62c-2.21 0-4-1.79-4-4v-2.01c0-2.21 1.79-4 4-4h62c2.21 0 4 1.79 4 4v2.01c0 2.21-1.79 4-4 4z" clip-path="url(#a)" fill="#444"/><linearGradient id="f" x1="63.667" x2="63.667" y1="35.828" y2="79.469" gradientUnits="userSpaceOnUse"><stop stop-color="#B71C1C" offset=".3406"/><stop stop-color="#D32F2F" stop-opacity="0" offset=".8799"/></linearGradient><rect x="42.33" y="35.33" width="42.67" height="45.56" fill="url(#f)" opacity=".4"/><defs><rect id="e" x="36.81" y="25.5" width="54.38" height="53.5"/></defs><clipPath id="b"><use xlink:href="#e"/></clipPath><g clip-path="url(#b)"><linearGradient id="d" x1="46.516" x2="77.752" y1="15.536" y2="62.169" gradientUnits="userSpaceOnUse"><stop stop-color="#FFC107" offset="0"/><stop stop-color="#FFD54F" offset="1"/></linearGradient><path d="m84.34 68.15v-54.01c0-2.21-1.79-4-4-4h-33.34c-2.21 0-4 1.79-4 4v54.01c0 2.21 1.79 4 4 4h33.34c2.21 0 4-1.79 4-4z" fill="url(#d)"/><linearGradient id="l" x1="54.187" x2="90.664" y1="9.77" y2="53.763" gradientTransform="matrix(0 1 1 0 -43.127 -79.123)" gradientUnits="userSpaceOnUse"><stop stop-color="#FFC107" offset=".2369"/><stop stop-color="#FFD54F" offset=".8023"/></linearGradient><path d="m43.07 68.61-0.07-55.71c0-1.53 1.24-2.77 2.77-2.77 0.22 0 0.42 0.1 0.55 0.27l23.3 30.26c0.19 0.25 0.19 0.6 0 0.85l-23.23 30.36c-0.13 0.18-3.1-3.26-3.32-3.26z" fill="url(#l)"/><defs><path id="k" d="m84.34 68.15v-54.01c0-2.21-1.79-4-4-4h-33.34c-2.21 0-4 1.79-4 4v54.01c0 2.21 1.79 4 4 4h33.34c2.21 0 4-1.79 4-4z"/></defs><clipPath id="c"><use xlink:href="#k"/></clipPath><g clip-path="url(#c)" fill="none" stroke="#FFB300" stroke-miterlimit="10" stroke-width="3.2631"><line x1="62" x2="86.37" y1="30.3" y2="7.97"/><line x1="61.94" x2="86.47" y1="51.94" y2="74.22"/></g><polyline points="44.95 8.11 69.94 41.09 45.04 74.17" clip-path="url(#c)" fill="none" stroke="#FFB300" stroke-miterlimit="10" stroke-width="3.2631"/><g opacity=".2"><path d="m80.44 12.31c0.95 0 1.72 0.77 1.72 1.72v54.22c0 0.95-0.77 1.72-1.72 1.72h-33.55c-0.95 0-1.72-0.77-1.72-1.72v-54.22c0-0.95 0.77-1.72 1.72-1.72h33.55m0-2.17h-33.55c-2.15 0-3.89 1.74-3.89 3.89v54.22c0 2.15 1.74 3.89 3.89 3.89h33.55c2.15 0 3.89-1.74 3.89-3.89v-54.22c0.01-2.15-1.73-3.89-3.89-3.89z" fill="#444"/></g></g><linearGradient id="j" x1="63.613" x2="63.613" y1="67.573" y2="25.058" gradientUnits="userSpaceOnUse"><stop stop-color="#757575" stop-opacity="0" offset=".7524"/><stop stop-color="#444" offset=".9032"/></linearGradient><rect x="42.87" y="25.06" width="41.48" height="42.52" clip-path="url(#b)" fill="url(#j)" opacity=".4"/></svg>

<svg width="128" height="128" style="enable-background:new 0 0 128 128;" xmlns="http://www.w3.org/2000/svg" xmlns:xlink="http://www.w3.org/1999/xlink">
  <g id="Layer_2">
    <g>
      <defs>
        <rect id="SVGID_1_" height="120" width="120" x="4" y="4"/>
      </defs>
      <clipPath id="SVGID_2_">
        <use style="overflow:visible;" xlink:href="#SVGID_1_"/>
      </clipPath>
      <linearGradient id="SVGID_3_" gradientUnits="userSpaceOnUse" x1="64" x2="64" y1="92.9833" y2="128.9196">
        <stop offset="0.2748" style="stop-color:#757575"/>
        <stop offset="0.9927" style="stop-color:#BDBDBD"/>
      </linearGradient>
      <rect height="44" style="clip-path:url(#SVGID_2_);fill:url(#SVGID_3_);" width="27.18" x="50.41" y="84"/>
      <g style="opacity:0.2;clip-path:url(#SVGID_2_);">
        <path d="M74.59,87v38H53.41V87H74.59 M77.59,84H50.41v44h27.18V84L77.59,84z" style="fill:#444444;"/>
      </g>
      <linearGradient id="SVGID_5_" gradientUnits="userSpaceOnUse" x1="64" x2="64" y1="5.0431" y2="96.9716">
        <stop offset="0.1383" style="stop-color:#EF5350"/>
        <stop offset="0.6599" style="stop-color:#E53935"/>
      </linearGradient>
      <path d="M102,99.96H26c-4.42,0-8-3.58-8-8V12c0-4.42,3.58-8,8-8h76 c4.42,0,8,3.58,8,8v79.96C110,96.38,106.42,99.96,102,99.96z" style="clip-path:url(#SVGID_2_);fill:url(#SVGID_5_);"/>
      <g style="opacity:0.2;clip-path:url(#SVGID_2_);">
        <path d="M102,7.07c2.72,0,4.93,2.21,4.93,4.93v79.96c0,2.72-2.21,4.93-4.93,4.93H26 c-2.72,0-4.93-2.21-4.93-4.93V12c0-2.72,2.21-4.93,4.93-4.93H102 M102,4H26c-4.42,0-8,3.58-8,8v79.96c0,4.42,3.58,8,8,8h76 c4.42,0,8-3.58,8-8V12C110,7.58,106.42,4,102,4L102,4z" style="fill:#444444;"/>
      </g>
      <path d="M95,33.95H33c-2.21,0-4-1.79-4-4v-2.01c0-2.21,1.79-4,4-4h62 c2.21,0,4,1.79,4,4v2.01C99,32.16,97.21,33.95,95,33.95z" style="clip-path:url(#SVGID_2_);fill:#444444;"/>
    </g>
    <linearGradient id="SVGID_6_" gradientUnits="userSpaceOnUse" x1="63.6667" x2="63.6667" y1="35.8285" y2="79.4693">
      <stop offset="0.3406" style="stop-color:#B71C1C"/>
      <stop offset="0.8799" style="stop-color:#D32F2F;stop-opacity:0"/>
    </linearGradient>
    <rect height="45.56" style="opacity:0.4;fill:url(#SVGID_6_);" width="42.67" x="42.33" y="35.33"/>
    <g>
      <defs>
        <rect id="SVGID_7_" height="53.5" width="54.38" x="36.81" y="25.5"/>
      </defs>
      <clipPath id="SVGID_8_">
        <use style="overflow:visible;" xlink:href="#SVGID_7_"/>
      </clipPath>
      <g style="clip-path:url(#SVGID_8_);">
        <linearGradient id="SVGID_9_" gradientUnits="userSpaceOnUse" x1="46.5163" x2="77.7521" y1="15.5356" y2="62.1693">
          <stop offset="0" style="stop-color:#FFC107"/>
          <stop offset="1" style="stop-color:#FFD54F"/>
        </linearGradient>
        <path d="M84.34,68.15V14.14c0-2.21-1.79-4-4-4H47c-2.21,0-4,1.79-4,4v54.01c0,2.21,1.79,4,4,4 h33.34C82.55,72.15,84.34,70.36,84.34,68.15z" style="fill:url(#SVGID_9_);"/>
        <g>
          <linearGradient id="SVGID_10_" gradientTransform="matrix(0 1 1 0 -43.1272 -79.1228)" gradientUnits="userSpaceOnUse" x1="54.187" x2="90.6638" y1="9.77" y2="53.7633">
            <stop offset="0.2369" style="stop-color:#FFC107"/>
            <stop offset="0.8023" style="stop-color:#FFD54F"/>
          </linearGradient>
          <path d="M43.07,68.61L43,12.9c0-1.53,1.24-2.77,2.77-2.77h0c0.22,0,0.42,0.1,0.55,0.27 l23.3,30.26c0.19,0.25,0.19,0.6,0,0.85L46.39,71.87C46.26,72.05,43.29,68.61,43.07,68.61z" style="fill:url(#SVGID_10_);"/>
        </g>
        <g>
          <defs>
            <path id="SVGID_11_" d="M84.34,68.15V14.14c0-2.21-1.79-4-4-4H47c-2.21,0-4,1.79-4,4v54.01c0,2.21,1.79,4,4,4h33.34 C82.55,72.15,84.34,70.36,84.34,68.15z"/>
          </defs>
          <clipPath id="SVGID_12_">
            <use style="overflow:visible;" xlink:href="#SVGID_11_"/>
          </clipPath>
          <g style="clip-path:url(#SVGID_12_);">
            <line style="fill:none;stroke:#FFB300;stroke-width:3.2631;stroke-miterlimit:10;" x1="62" x2="86.37" y1="30.3" y2="7.97"/>
            <line style="fill:none;stroke:#FFB300;stroke-width:3.2631;stroke-miterlimit:10;" x1="61.94" x2="86.47" y1="51.94" y2="74.22"/>
          </g>
          <polyline points=" 44.95,8.11 69.94,41.09 45.04,74.17 " style="clip-path:url(#SVGID_12_);fill:none;stroke:#FFB300;stroke-width:3.2631;stroke-miterlimit:10;"/>
        </g>
        <g style="opacity:0.2;">
          <path d="M80.44,12.31c0.95,0,1.72,0.77,1.72,1.72v54.22c0,0.95-0.77,1.72-1.72,1.72H46.89 c-0.95,0-1.72-0.77-1.72-1.72V14.03c0-0.95,0.77-1.72,1.72-1.72H80.44 M80.44,10.14H46.89c-2.15,0-3.89,1.74-3.89,3.89v54.22 c0,2.15,1.74,3.89,3.89,3.89h33.55c2.15,0,3.89-1.74,3.89-3.89V14.03C84.34,11.88,82.6,10.14,80.44,10.14L80.44,10.14z" style="fill:#444444;"/>
        </g>
      </g>
      <linearGradient id="SVGID_13_" gradientUnits="userSpaceOnUse" x1="63.6127" x2="63.6127" y1="67.5732" y2="25.0579">
        <stop offset="0.7524" style="stop-color:#757575;stop-opacity:0"/>
        <stop offset="0.9032" style="stop-color:#444444"/>
      </linearGradient>
      <rect height="42.52" style="opacity:0.4;clip-path:url(#SVGID_8_);fill:url(#SVGID_13_);" width="41.48" x="42.87" y="25.06"/>
    </g>
  </g>
  <g id="レイヤー_1" style="display:none;">
    <g style="display:inline;">
      <g style="opacity:0.6;">
        <circle cx="64" cy="64" r="28" style="opacity:0.61;fill:none;stroke:#000000;stroke-width:0.2625;stroke-miterlimit:10;"/>
        <line style="opacity:0.61;fill:none;stroke:#000000;stroke-width:0.25;stroke-miterlimit:10;" x1="84" x2="84" y1="0" y2="128"/>
        <line style="opacity:0.61;fill:none;stroke:#000000;stroke-width:0.25;stroke-miterlimit:10;" x1="44" x2="44" y1="0" y2="128"/>
        <line style="opacity:0.61;fill:none;stroke:#000000;stroke-width:0.25;stroke-miterlimit:10;" x1="64" x2="64" y1="0" y2="128"/>
        <line style="opacity:0.61;fill:none;stroke:#000000;stroke-width:0.25;stroke-miterlimit:10;" x1="128" x2="0" y1="64" y2="64"/>
        <line style="opacity:0.61;fill:none;stroke:#000000;stroke-width:0.25;stroke-miterlimit:10;" x1="128" x2="0" y1="44" y2="44"/>
        <line style="opacity:0.61;fill:none;stroke:#000000;stroke-width:0.25;stroke-miterlimit:10;" x1="128" x2="0" y1="83.75" y2="83.75"/>
        <line style="opacity:0.61;fill:none;stroke:#000000;stroke-width:0.25;stroke-miterlimit:10;" x1="128" x2="0" y1="128" y2="0"/>
        <line style="opacity:0.61;fill:none;stroke:#000000;stroke-width:0.25;stroke-miterlimit:10;" x1="0" x2="128" y1="128" y2="0"/>
        <g style="opacity:0.61;">
          <path d="M64,4.26c32.94,0,59.74,26.8,59.74,59.74S96.94,123.74,64,123.74S4.26,96.94,4.26,64S31.06,4.26,64,4.26 M64,4 C30.86,4,4,30.86,4,64s26.86,60,60,60s60-26.86,60-60S97.14,4,64,4L64,4z"/>
        </g>
        <path d="M107.97,115.97H20.03 c-4.42,0-8.03-3.61-8.03-8.03V20.03c0-4.42,3.61-8.03,8.03-8.03h87.94c4.42,0,8.03,3.61,8.03,8.03v87.91 C116,112.36,112.39,115.97,107.97,115.97z" style="opacity:0.61;fill:none;stroke:#000000;stroke-width:0.2578;stroke-miterlimit:10;"/>
        <path d="M100,124H28c-4.4,0-8-3.6-8-8 V12c0-4.4,3.6-8,8-8h72c4.4,0,8,3.6,8,8v104C108,120.4,104.4,124,100,124z" style="opacity:0.61;fill:none;stroke:#000000;stroke-width:0.2628;stroke-miterlimit:10;"/>
        <path d="M113.77,108H14.23 C8.6,108,4,103.4,4,97.77V30.28c0-5.63,4.6-10.23,10.23-10.23h99.54c5.63,0,10.23,4.6,10.23,10.23v67.48 C124,103.4,119.4,108,113.77,108z" style="opacity:0.61;fill:none;stroke:#000000;stroke-width:0.2627;stroke-miterlimit:10;"/>
      </g>
      <g>
        <g style="opacity:0.2;">
          <defs>
            <rect id="SVGID_4_" height="128" style="opacity:0.2;" width="128" x="0" y="0"/>
          </defs>
          <clipPath id="SVGID_14_">
            <use style="overflow:visible;" xlink:href="#SVGID_4_"/>
          </clipPath>
          <g style="clip-path:url(#SVGID_14_);">
            <g>
              <line style="fill:none;stroke:#000000;stroke-width:0.25;stroke-miterlimit:10;" x1="-28" x2="-28" y1="160" y2="-32"/>
              <line style="fill:none;stroke:#000000;stroke-width:0.25;stroke-miterlimit:10;" x1="-24" x2="-24" y1="160" y2="-32"/>
              <line style="fill:none;stroke:#000000;stroke-width:0.25;stroke-miterlimit:10;" x1="-20" x2="-20" y1="160" y2="-32"/>
              <line style="fill:none;stroke:#000000;stroke-width:0.25;stroke-miterlimit:10;" x1="-16" x2="-16" y1="160" y2="-32"/>
              <line style="fill:none;stroke:#000000;stroke-width:0.25;stroke-miterlimit:10;" x1="-12" x2="-12" y1="160" y2="-32"/>
              <line style="fill:none;stroke:#000000;stroke-width:0.25;stroke-miterlimit:10;" x1="-8" x2="-8" y1="160" y2="-32"/>
              <line style="fill:none;stroke:#000000;stroke-width:0.25;stroke-miterlimit:10;" x1="-4" x2="-4" y1="160" y2="-32"/>
              <line style="fill:none;stroke:#000000;stroke-width:0.25;stroke-miterlimit:10;" x1="0" x2="0" y1="160" y2="-32"/>
              <line style="fill:none;stroke:#000000;stroke-width:0.25;stroke-miterlimit:10;" x1="4" x2="4" y1="160" y2="-32"/>
              <line style="fill:none;stroke:#000000;stroke-width:0.25;stroke-miterlimit:10;" x1="8" x2="8" y1="160" y2="-32"/>
              <line style="fill:none;stroke:#000000;stroke-width:0.25;stroke-miterlimit:10;" x1="12" x2="12" y1="160" y2="-32"/>
              <line style="fill:none;stroke:#000000;stroke-width:0.25;stroke-miterlimit:10;" x1="16" x2="16" y1="160" y2="-32"/>
              <line style="fill:none;stroke:#000000;stroke-width:0.25;stroke-miterlimit:10;" x1="20" x2="20" y1="160" y2="-32"/>
              <line style="fill:none;stroke:#000000;stroke-width:0.25;stroke-miterlimit:10;" x1="24" x2="24" y1="160" y2="-32"/>
              <line style="fill:none;stroke:#000000;stroke-width:0.25;stroke-miterlimit:10;" x1="28" x2="28" y1="160" y2="-32"/>
              <line style="fill:none;stroke:#000000;stroke-width:0.25;stroke-miterlimit:10;" x1="32" x2="32" y1="160" y2="-32"/>
              <line style="fill:none;stroke:#000000;stroke-width:0.25;stroke-miterlimit:10;" x1="36" x2="36" y1="160" y2="-32"/>
              <line style="fill:none;stroke:#000000;stroke-width:0.25;stroke-miterlimit:10;" x1="40" x2="40" y1="160" y2="-32"/>
              <line style="fill:none;stroke:#000000;stroke-width:0.25;stroke-miterlimit:10;" x1="44" x2="44" y1="160" y2="-32"/>
              <line style="fill:none;stroke:#000000;stroke-width:0.25;stroke-miterlimit:10;" x1="48" x2="48" y1="160" y2="-32"/>
              <line style="fill:none;stroke:#000000;stroke-width:0.25;stroke-miterlimit:10;" x1="52" x2="52" y1="160" y2="-32"/>
              <line style="fill:none;stroke:#000000;stroke-width:0.25;stroke-miterlimit:10;" x1="56" x2="56" y1="160" y2="-32"/>
              <line style="fill:none;stroke:#000000;stroke-width:0.25;stroke-miterlimit:10;" x1="60" x2="60" y1="160" y2="-32"/>
              <line style="fill:none;stroke:#000000;stroke-width:0.25;stroke-miterlimit:10;" x1="64" x2="64" y1="160" y2="-32"/>
              <line style="fill:none;stroke:#000000;stroke-width:0.25;stroke-miterlimit:10;" x1="68" x2="68" y1="160" y2="-32"/>
              <line style="fill:none;stroke:#000000;stroke-width:0.25;stroke-miterlimit:10;" x1="72" x2="72" y1="160" y2="-32"/>
              <line style="fill:none;stroke:#000000;stroke-width:0.25;stroke-miterlimit:10;" x1="76" x2="76" y1="160" y2="-32"/>
              <line style="fill:none;stroke:#000000;stroke-width:0.25;stroke-miterlimit:10;" x1="80" x2="80" y1="160" y2="-32"/>
              <line style="fill:none;stroke:#000000;stroke-width:0.25;stroke-miterlimit:10;" x1="84" x2="84" y1="160" y2="-32"/>
              <line style="fill:none;stroke:#000000;stroke-width:0.25;stroke-miterlimit:10;" x1="88" x2="88" y1="160" y2="-32"/>
              <line style="fill:none;stroke:#000000;stroke-width:0.25;stroke-miterlimit:10;" x1="92" x2="92" y1="160" y2="-32"/>
              <line style="fill:none;stroke:#000000;stroke-width:0.25;stroke-miterlimit:10;" x1="96" x2="96" y1="160" y2="-32"/>
              <line style="fill:none;stroke:#000000;stroke-width:0.25;stroke-miterlimit:10;" x1="100" x2="100" y1="160" y2="-32"/>
              <line style="fill:none;stroke:#000000;stroke-width:0.25;stroke-miterlimit:10;" x1="104" x2="104" y1="160" y2="-32"/>
              <line style="fill:none;stroke:#000000;stroke-width:0.25;stroke-miterlimit:10;" x1="108" x2="108" y1="160" y2="-32"/>
              <line style="fill:none;stroke:#000000;stroke-width:0.25;stroke-miterlimit:10;" x1="112" x2="112" y1="160" y2="-32"/>
              <line style="fill:none;stroke:#000000;stroke-width:0.25;stroke-miterlimit:10;" x1="116" x2="116" y1="160" y2="-32"/>
              <line style="fill:none;stroke:#000000;stroke-width:0.25;stroke-miterlimit:10;" x1="120" x2="120" y1="160" y2="-32"/>
              <line style="fill:none;stroke:#000000;stroke-width:0.25;stroke-miterlimit:10;" x1="124" x2="124" y1="160" y2="-32"/>
              <line style="fill:none;stroke:#000000;stroke-width:0.25;stroke-miterlimit:10;" x1="128" x2="128" y1="160" y2="-32"/>
              <line style="fill:none;stroke:#000000;stroke-width:0.25;stroke-miterlimit:10;" x1="132" x2="132" y1="160" y2="-32"/>
              <line style="fill:none;stroke:#000000;stroke-width:0.25;stroke-miterlimit:10;" x1="136" x2="136" y1="160" y2="-32"/>
              <line style="fill:none;stroke:#000000;stroke-width:0.25;stroke-miterlimit:10;" x1="137" x2="137" y1="166.05" y2="-25.95"/>
              <line style="fill:none;stroke:#000000;stroke-width:0.25;stroke-miterlimit:10;" x1="144" x2="144" y1="160" y2="-32"/>
              <line style="fill:none;stroke:#000000;stroke-width:0.25;stroke-miterlimit:10;" x1="148" x2="148" y1="160" y2="-32"/>
              <line style="fill:none;stroke:#000000;stroke-width:0.25;stroke-miterlimit:10;" x1="152" x2="152" y1="160" y2="-32"/>
              <line style="fill:none;stroke:#000000;stroke-width:0.25;stroke-miterlimit:10;" x1="156" x2="156" y1="160" y2="-32"/>
            </g>
            <g>
              <line style="fill:none;stroke:#000000;stroke-width:0.25;stroke-miterlimit:10;" x1="-32" x2="160" y1="-28" y2="-28"/>
              <line style="fill:none;stroke:#000000;stroke-width:0.25;stroke-miterlimit:10;" x1="-32" x2="160" y1="-24" y2="-24"/>
              <line style="fill:none;stroke:#000000;stroke-width:0.25;stroke-miterlimit:10;" x1="-32" x2="160" y1="-20" y2="-20"/>
              <line style="fill:none;stroke:#000000;stroke-width:0.25;stroke-miterlimit:10;" x1="-32" x2="160" y1="-16" y2="-16"/>
              <line style="fill:none;stroke:#000000;stroke-width:0.25;stroke-miterlimit:10;" x1="-32" x2="160" y1="-12" y2="-12"/>
              <line style="fill:none;stroke:#000000;stroke-width:0.25;stroke-miterlimit:10;" x1="-32" x2="160" y1="-8" y2="-8"/>
              <line style="fill:none;stroke:#000000;stroke-width:0.25;stroke-miterlimit:10;" x1="-32" x2="160" y1="-4" y2="-4"/>
              <line style="fill:none;stroke:#000000;stroke-width:0.25;stroke-miterlimit:10;" x1="-32" x2="160" y1="0" y2="0"/>
              <line style="fill:none;stroke:#000000;stroke-width:0.25;stroke-miterlimit:10;" x1="-32" x2="160" y1="4" y2="4"/>
              <line style="fill:none;stroke:#000000;stroke-width:0.25;stroke-miterlimit:10;" x1="-32" x2="160" y1="8" y2="8"/>
              <line style="fill:none;stroke:#000000;stroke-width:0.25;stroke-miterlimit:10;" x1="-32" x2="160" y1="12" y2="12"/>
              <line style="fill:none;stroke:#000000;stroke-width:0.25;stroke-miterlimit:10;" x1="-32" x2="160" y1="16" y2="16"/>
              <line style="fill:none;stroke:#000000;stroke-width:0.25;stroke-miterlimit:10;" x1="-32" x2="160" y1="20" y2="20"/>
              <line style="fill:none;stroke:#000000;stroke-width:0.25;stroke-miterlimit:10;" x1="-32" x2="160" y1="24" y2="24"/>
              <line style="fill:none;stroke:#000000;stroke-width:0.25;stroke-miterlimit:10;" x1="-32" x2="160" y1="28" y2="28"/>
              <line style="fill:none;stroke:#000000;stroke-width:0.25;stroke-miterlimit:10;" x1="-32" x2="160" y1="32" y2="32"/>
              <line style="fill:none;stroke:#000000;stroke-width:0.25;stroke-miterlimit:10;" x1="-32" x2="160" y1="36" y2="36"/>
              <line style="fill:none;stroke:#000000;stroke-width:0.25;stroke-miterlimit:10;" x1="-32" x2="160" y1="40" y2="40"/>
              <line style="fill:none;stroke:#000000;stroke-width:0.25;stroke-miterlimit:10;" x1="-32" x2="160" y1="44" y2="44"/>
              <line style="fill:none;stroke:#000000;stroke-width:0.25;stroke-miterlimit:10;" x1="-32" x2="160" y1="48" y2="48"/>
              <line style="fill:none;stroke:#000000;stroke-width:0.25;stroke-miterlimit:10;" x1="-32" x2="160" y1="52" y2="52"/>
              <line style="fill:none;stroke:#000000;stroke-width:0.25;stroke-miterlimit:10;" x1="-32" x2="160" y1="56" y2="56"/>
              <line style="fill:none;stroke:#000000;stroke-width:0.25;stroke-miterlimit:10;" x1="-32" x2="160" y1="60" y2="60"/>
              <line style="fill:none;stroke:#000000;stroke-width:0.25;stroke-miterlimit:10;" x1="-32" x2="160" y1="64" y2="64"/>
              <line style="fill:none;stroke:#000000;stroke-width:0.25;stroke-miterlimit:10;" x1="-32" x2="160" y1="68" y2="68"/>
              <line style="fill:none;stroke:#000000;stroke-width:0.25;stroke-miterlimit:10;" x1="-32" x2="160" y1="72" y2="72"/>
              <line style="fill:none;stroke:#000000;stroke-width:0.25;stroke-miterlimit:10;" x1="-32" x2="160" y1="76" y2="76"/>
              <line style="fill:none;stroke:#000000;stroke-width:0.25;stroke-miterlimit:10;" x1="-32" x2="160" y1="80" y2="80"/>
              <line style="fill:none;stroke:#000000;stroke-width:0.25;stroke-miterlimit:10;" x1="-32" x2="160" y1="84" y2="84"/>
              <line style="fill:none;stroke:#000000;stroke-width:0.25;stroke-miterlimit:10;" x1="-32" x2="160" y1="88" y2="88"/>
              <line style="fill:none;stroke:#000000;stroke-width:0.25;stroke-miterlimit:10;" x1="-32" x2="160" y1="92" y2="92"/>
              <line style="fill:none;stroke:#000000;stroke-width:0.25;stroke-miterlimit:10;" x1="-32" x2="160" y1="96" y2="96"/>
              <line style="fill:none;stroke:#000000;stroke-width:0.25;stroke-miterlimit:10;" x1="-32" x2="160" y1="100" y2="100"/>
              <line style="fill:none;stroke:#000000;stroke-width:0.25;stroke-miterlimit:10;" x1="-32" x2="160" y1="104" y2="104"/>
              <line style="fill:none;stroke:#000000;stroke-width:0.25;stroke-miterlimit:10;" x1="-32" x2="160" y1="108" y2="108"/>
              <line style="fill:none;stroke:#000000;stroke-width:0.25;stroke-miterlimit:10;" x1="-32" x2="160" y1="112" y2="112"/>
              <line style="fill:none;stroke:#000000;stroke-width:0.25;stroke-miterlimit:10;" x1="-32" x2="160" y1="116" y2="116"/>
              <line style="fill:none;stroke:#000000;stroke-width:0.25;stroke-miterlimit:10;" x1="-32" x2="160" y1="120" y2="120"/>
              <line style="fill:none;stroke:#000000;stroke-width:0.25;stroke-miterlimit:10;" x1="-32" x2="160" y1="124" y2="124"/>
              <line style="fill:none;stroke:#000000;stroke-width:0.25;stroke-miterlimit:10;" x1="-32" x2="160" y1="128" y2="128"/>
              <line style="fill:none;stroke:#000000;stroke-width:0.25;stroke-miterlimit:10;" x1="-32" x2="160" y1="132" y2="132"/>
              <line style="fill:none;stroke:#000000;stroke-width:0.25;stroke-miterlimit:10;" x1="-32" x2="160" y1="136" y2="136"/>
              <line style="fill:none;stroke:#000000;stroke-width:0.25;stroke-miterlimit:10;" x1="-32" x2="160" y1="140" y2="140"/>
              <line style="fill:none;stroke:#000000;stroke-width:0.25;stroke-miterlimit:10;" x1="-32" x2="160" y1="144" y2="144"/>
              <line style="fill:none;stroke:#000000;stroke-width:0.25;stroke-miterlimit:10;" x1="-32" x2="160" y1="148" y2="148"/>
              <line style="fill:none;stroke:#000000;stroke-width:0.25;stroke-miterlimit:10;" x1="-32" x2="160" y1="152" y2="152"/>
              <line style="fill:none;stroke:#000000;stroke-width:0.25;stroke-miterlimit:10;" x1="-32" x2="160" y1="156" y2="156"/>
            </g>
            <path d="M159.75-31.75v191.5h-191.5v-191.5H159.75 M160-32H-32v192h192V-32L160-32z"/>
          </g>
        </g>
        <g>
          <rect height="128" style="opacity:0.3;fill:#EF4438;" width="4" x="0" y="0"/>
          <rect height="128" style="opacity:0.3;fill:#EF4438;" width="4" x="124" y="0"/>
          <rect height="120" style="opacity:0.3;fill:#EF4438;" transform="matrix(-1.836970e-16 1 -1 -1.836970e-16 66 -62)" width="4" x="62" y="-58"/>
          <rect height="120" style="opacity:0.3;fill:#EF4438;" transform="matrix(-1.836970e-16 1 -1 -1.836970e-16 190 62)" width="4" x="62" y="66"/>
        </g>
      </g>
    </g>
  </g>
</svg>
